X:1
T: Lady Heriet Georgina Hamilton
C:William Marshall
R:Strathspey
Q: 128
K:F
M:4/4
L:1/16
|:d2|c3F A3F d4 d2f2|c3F A3F d2G2 G2f2|c3F A3F d4 d2f2|bagf cdeg f2F2 F2d2|
c3F A3F d4 d2f2|c3F A3F d2G2 G2f2|c3F A3F d4 d2f2|bagf cdeg f2F2 F2f2|
bagf a2f2 gfed c2A2|B3c dcBA B2G2 G2f2|bagf gfed c2A2 A2d2|c2f2 e2g2 a2f2 f2g2|
bagf agfe gfed c2A2|B3c dcBA B2G2 G2A2|FGAB c2A2 d4 B2d2|E2G2 c3B A2F2 F2:|
